images_sukapura_svg/cmd/sc_italic.svg

<svg viewBox="0 0 16 16" xmlns="http://www.w3.org/2000/svg">



     /&amp;amp;gt;
 <path d="m6 0v1h2.1855469l-2.4316407 14h-1.7539062v1h1.5800781l-.0019531.011719h2.0546875l.0019531-.011719h2.3652344v-1h-2.1914062l2.4316402-14h1.759766v-1z" fill="#69696e"/></svg>

<?xml version="1.0" encoding="UTF-8" standalone="no"?>
<svg
   xmlns:dc="http://purl.org/dc/elements/1.1/"
   xmlns:cc="http://creativecommons.org/ns#"
   xmlns:rdf="http://www.w3.org/1999/02/22-rdf-syntax-ns#"
   xmlns:svg="http://www.w3.org/2000/svg"
   xmlns="http://www.w3.org/2000/svg"
   xmlns:sodipodi="http://sodipodi.sourceforge.net/DTD/sodipodi-0.dtd"
   xmlns:inkscape="http://www.inkscape.org/namespaces/inkscape"
   viewBox="0 0 16 16"
   version="1.1"
   id="svg4"
   sodipodi:docname="sc_italic.svg"
   inkscape:version="0.92.3 (2405546, 2018-03-11)"><metadata
   id="metadata10">
  <rdf:RDF>
    <cc:Work
       rdf:about="">
      <dc:format>image/svg+xml</dc:format>
      <dc:type
         rdf:resource="http://purl.org/dc/dcmitype/StillImage" />
      <dc:title></dc:title>
    </cc:Work>
  </rdf:RDF>
</metadata>
<defs
   id="defs8" />
<sodipodi:namedview
   pagecolor="#ffffff"
   bordercolor="#666666"
   borderopacity="1"
   objecttolerance="10"
   gridtolerance="10"
   guidetolerance="10"
   inkscape:pageopacity="0"
   inkscape:pageshadow="2"
   inkscape:window-width="1366"
   inkscape:window-height="692"
   id="namedview6"
   showgrid="true"
   inkscape:zoom="20.85965"
   inkscape:cx="1.9581961"
   inkscape:cy="6.8214896"
   inkscape:window-x="0"
   inkscape:window-y="0"
   inkscape:window-maximized="1"
   inkscape:current-layer="svg4">
  <inkscape:grid
     type="xygrid"
     id="grid817" />
</sodipodi:namedview>



     /&amp;gt;
 <path
   style="font-style:normal;font-weight:normal;font-size:22.50141907px;line-height:1.25;font-family:sans-serif;letter-spacing:0px;word-spacing:0px;fill:#69696e;fill-opacity:1;stroke:none;stroke-width:0.56253546;"
   d="M 6 0 L 6 1 L 8.1855469 1 L 5.7539062 15 L 4 15 L 4 16 L 5.5800781 16 L 5.578125 16.011719 L 7.6328125 16.011719 L 7.6347656 16 L 10 16 L 10 15 L 7.8085938 15 L 10.240234 1 L 12 1 L 12 0 L 6 0 z "
   id="text821" />
</svg>
